fileicons/icons/sml.svg

<svg version="1.0" viewBox="0 0 24 24" xmlns="http://www.w3.org/2000/svg">
 <path d="m4.7474 6.5623h6.4367c1.2017 0 2.1758 0.97399 2.1758 2.1755v8.7019h-2.1758v-8.7019h-2.1758v7.6141h-2.1758v-7.6141h-2.0851v8.7019h-2.2665v-8.7019c-0.0010752-1.2378 1.0296-2.227 2.2665-2.1755zm10.244 0h2.1758v8.7019h4.3516v2.1755h-6.5274z" fill="#f44336" stroke-width="1.0577"/>
</svg>

<svg xmlns="http://www.w3.org/2000/svg" viewBox="0 0 24 24"><path fill="#f44336" d="M4.747 6.562h6.437c1.202 0 2.176.974 2.176 2.176v8.702h-2.176V8.738H9.008v7.614H6.833V8.738H4.746v8.702H2.481V8.738a2.176 2.176 0 0 1 2.266-2.176m10.244 0h2.176v8.702h4.352v2.176H14.99z"/></svg>
